packages/foundations/assets/icons/functional/images/business & payment/shopping_basket_24_filled.svg

<svg xmlns="http://www.w3.org/2000/svg" width="20" height="20" fill="none"><path fill="#1A1C1F" fill-rule="evenodd" d="M9.403 3.035a3.88 3.88 0 0 0-2.848 1.854c-.273.454-.461 1.06-.527 1.695l-.04.379-1.586.01-1.585.01-.185.087c-.252.118-.413.267-.516.478-.169.346-.197.162.682 4.585.442 2.228.827 4.12.855 4.206.066.202.278.441.493.554l.171.09h11.366l.164-.08c.197-.097.392-.285.484-.465.044-.087.337-1.512.871-4.243.653-3.339.801-4.145.786-4.291a1.05 1.05 0 0 0-.575-.82c-.211-.1-.49-.117-1.952-.117h-1.455l-.022-.259c-.084-1.006-.431-1.828-1.045-2.483a3.96 3.96 0 0 0-2.114-1.142 6.3 6.3 0 0 0-1.422-.048m1.052 2.015c.827.156 1.401.786 1.51 1.655l.035.286c0 .005-.902.009-2.004.009H7.991l.023-.208c.057-.516.212-.874.519-1.203.451-.482 1.166-.683 1.922-.539"/></svg>

<svg width="20" height="20" viewBox="0 0 20 20" fill="none" xmlns="http://www.w3.org/2000/svg"><path d="M9.403 3.035 C 8.215 3.184,7.173 3.863,6.555 4.889 C 6.282 5.343,6.094 5.949,6.028 6.584 L 5.988 6.963 4.402 6.973 L 2.817 6.983 2.632 7.070 C 2.380 7.188,2.219 7.337,2.116 7.548 C 1.947 7.894,1.919 7.710,2.798 12.133 C 3.240 14.361,3.625 16.253,3.653 16.339 C 3.719 16.541,3.931 16.780,4.146 16.893 L 4.317 16.983 10.000 16.983 L 15.683 16.983 15.847 16.903 C 16.044 16.806,16.239 16.618,16.331 16.438 C 16.375 16.351,16.668 14.926,17.202 12.195 C 17.855 8.856,18.003 8.050,17.988 7.904 C 17.954 7.561,17.723 7.231,17.413 7.084 C 17.202 6.984,16.923 6.967,15.461 6.967 L 14.006 6.967 13.984 6.708 C 13.900 5.702,13.553 4.880,12.939 4.225 C 12.400 3.651,11.637 3.239,10.825 3.083 C 10.488 3.018,9.737 2.993,9.403 3.035 M10.455 5.050 C 11.282 5.206,11.856 5.836,11.965 6.705 C 11.984 6.857,12.000 6.986,12.000 6.991 C 12.000 6.996,11.098 7.000,9.996 7.000 L 7.991 7.000 8.014 6.792 C 8.071 6.276,8.226 5.918,8.533 5.589 C 8.984 5.107,9.699 4.906,10.455 5.050 " fill="#1A1C1F" stroke="none" fill-rule="evenodd"></path></svg>
